X: 2104
T: Çok Yaşa Sen Ayşe
C: Muhlis Sabahaddin Ezgi
O: Turkey
F: http://compmusic.upf.edu/node/140
N: hicaz--sarki--nimsofyan--cok_yasa--muhlis_sabahaddin_ezgi
N: makam= hicaz
N: form= sarki
N: usul= nimsofyan = 2/4
M: 2/4
L: 1/16
K: C _7/8B ^f ^c 
Q: 1/4=90
%%MIDI tuningsystem comma53
(3a2^g2a2 (3=f2e2f2  | (3g2f2g2 (3e2d2e2  | \
w:  ARANAĞME  |   | 
(3=f2e2f2 (3d2c2d2  | (3A2c2e2 a4  | 
w:   |   | 
(3a2^g2a2 (3=f2e2f2  | (3g2f2g2 (3e2d2e2  | \
w:  ARANAĞME  |   | 
(3=f2e2f2 (3d2c2d2  | (3e2c2B2 A4  | 
w:   |   | 
A4 e4  | c4 (3B2A2G2  | A4 e4  | c4 (3B2A2G2  | \
w:  Çok ya  |  şa sen Ay şe  |  Çok ya  |  şa sen Ay şe  | 
(3A2B2c2 (3B2A2G2  | (3A2B2c2 (3B2A2G2  | 
w:  Kö yün yıl dı zı sın  |  Bi ri cik kı zı sın  | 
(3c2d2e2 (3d2c2B2  | A4 z4  | A4 e4  | c4 (3B2A2G2  | \
w:  Da yı nın ku zu su  |  sun  |  Çok ya  |  şa sen Ay şe  | 
A4 e4  | c4 (3B2A2G2  | (3A2B2c2 (3B2A2G2  | 
w:  Çok ya  |  şa sen Ay şe  |  Kö yün yıl dı zı sın  | 
(3A2B2c2 (3B2A2G2  | (3c2d2e2 (3d2c2B2  | \
w:  Bi ri cik kı zı sın  |  Da yı nın ku zu su  | 
A4 z4  | A4 c3d  | e4 a4  | A4 c3d  | 
w:  sun  |  Bah tın a  |  çıl sın  |  Ta li sa  | 
e4 a4  | A4 c3d  | e4 a4  | (3g2f2g2 (3=f2e2d2  | \
w:  çıl sın  |  Gön lün şen  |  ol sun  |  Ken di ni üz me sa  | 
e4 z4  | A4 c3d  | e4 a4  | A4 c3d  | 
w:  kın  |  Bah tın a  |  çıl sın  |  Ta li sa  | 
e4 a4  | A4 c3d  | e4 a4  | (3g2f2g2 (3=f2e2d2  | \
w:  çıl sın  |  Gön lün şen  |  ol sun  |  Ken di ni üz me sa  | 
e4 z4  | g8  | g8  | g8  | g8  | g4 (3=f2e2d2  | 
w:  kın  |  Hey  |   |   |   |  vur pat la sın  | 
g4 (3=f2e2d2  | g4 (3=f2e2d2  | g4 (3=f2e2d2  | \
w:  Çal oy na sın  |  vur pat la sın  |  Çal oy na sın  | 
(3c2d2e2 (3d2c2B2  | A4 e4  | (3c2d2e2 (3d2c2B2  | 
w:  Bu ha yat böy le ge  |  çer Hey  |  Bu ha yat böy le ge  | 
A4 z4  | g8  | g8  | g8  | g8  | g4 (3=f2e2d2  | \
w:  çer  |  Hey  |   |   |   |  vur pat la sın  | 
g4 (3=f2e2d2  | g4 (3=f2e2d2  | g4 (3=f2e2d2  | 
w:  Çal oy na sın  |  vur pat la sın  |  Çal oy na sın  | 
(3c2d2e2 (3d2c2B2  | A4 e4  | (3c2d2e2 (3d2c2B2  | \
w:  Bu ha yat böy le ge  |  çer Hey  |  Bu ha yat böy le ge  | 
A4 z4  | |


